svg/circle-error.svg

<svg width="24" height="24" viewBox="0 0 24 24" fill="none" xmlns="http://www.w3.org/2000/svg">
<path d="M12 4C7.58172 4 4 7.58172 4 12C4 16.4183 7.58172 20 12 20C16.4183 20 20 16.4183 20 12C20 7.58172 16.4183 4 12 4ZM2 12C2 6.47715 6.47715 2 12 2C17.5228 2 22 6.47715 22 12C22 17.5228 17.5228 22 12 22C6.47715 22 2 17.5228 2 12ZM7.79289 7.79289C8.18342 7.40237 8.81658 7.40237 9.20711 7.79289L12 10.5858L14.7929 7.79289C15.1834 7.40237 15.8166 7.40237 16.2071 7.79289C16.5976 8.18342 16.5976 8.81658 16.2071 9.20711L13.4142 12L16.2071 14.7929C16.5976 15.1834 16.5976 15.8166 16.2071 16.2071C15.8166 16.5976 15.1834 16.5976 14.7929 16.2071L12 13.4142L9.20711 16.2071C8.81658 16.5976 8.18342 16.5976 7.79289 16.2071C7.40237 15.8166 7.40237 15.1834 7.79289 14.7929L10.5858 12L7.79289 9.20711C7.40237 8.81658 7.40237 8.18342 7.79289 7.79289Z" fill="#0D0D0D"/>
</svg>

<svg width="24" height="24" fill="none" xmlns="http://www.w3.org/2000/svg"><path d="M12 4a8 8 0 100 16 8 8 0 000-16zM2 12C2 6.477 6.477 2 12 2s10 4.477 10 10-4.477 10-10 10S2 17.523 2 12zm5.793-4.207a1 1 0 011.414 0L12 10.586l2.793-2.793a1 1 0 111.414 1.414L13.414 12l2.793 2.793a1 1 0 01-1.414 1.414L12 13.414l-2.793 2.793a1 1 0 01-1.414-1.414L10.586 12 7.793 9.207a1 1 0 010-1.414z" fill="#0D0D0D"/></svg>
